icons/funds-fill.svg

<svg xmlns="http://www.w3.org/2000/svg" width="24" height="24" fill="none"><g clip-path="url(#a)"><g><path fill="#121212" d="M3.89699 17.86L7.80699 13.95L10.636 16.778L15.207 12.208L17 14V9H12L13.793 10.793L10.636 13.95L7.80799 11.121L2.86199 16.067C2.29192 14.787 1.9982 13.4012 1.99999 12C1.99999 6.477 6.47699 2 12 2C17.523 2 22 6.477 22 12C22 17.523 17.523 22 12 22C10.418 22.001 8.85838 21.6262 7.4496 20.9065C6.04082 20.1867 4.82319 19.1425 3.89699 17.86Z"/></g></g><defs><clipPath id="a"><rect width="24" height="24" fill="white"/></clipPath></defs></svg>

<svg width="24" height="24" fill="none" xmlns="http://www.w3.org/2000/svg"><g clip-path="url(#a)"><path d="m3.897 17.86 3.91-3.91 2.829 2.828 4.571-4.57L17 14V9h-5l1.793 1.793-3.157 3.157-2.828-2.829-4.946 4.946A9.965 9.965 0 0 1 2 12C2 6.477 6.477 2 12 2s10 4.477 10 10-4.477 10-10 10a9.988 9.988 0 0 1-8.103-4.14Z" /></g><defs><clipPath id="a"><path fill="#fff" d="M0 0h24v24H0z"/></clipPath></defs></svg>
